X:7
T:Miss Graham
R:reel
D:Lake Bras D'Or, Theresa Morrison
B:Kerr's 3rd
Z:Paul Stewart Cranford (P.S.C.), <http://www.cranfordpub.com>
Q:333
L:1/8
M:C|
K:D
F|D2 DF A2 FA|BdAF AFEF|D2 DF A2 FA|BdAF E2 E:|
||A|dfef d2 Ad|BdAd feef|dfef d2 Ad|BdAF E2 EA|
dfef d2 Ad|BdAd feeg|faef deBd|AFdF E2 E|]
||F|D2 AF A2 FA|BdAF AFEF|D2 AF A2 FA|BdAF E2 E:|
||A|dfef d2 Ad|BdAd feef|dfef d2 Ad|BdAF E2 EA|
dfef d2 Ad|BdAd feeg|faef deBd|AFdF E2 E|]
